assets/icons/qvision/plus_one.svg

<svg xmlns="http://www.w3.org/2000/svg" height="24" viewBox="0 0 24 24" width="24"><path d="M0 0h24v24H0z" fill="none"/><path d="M10 8H8v4H4v2h4v4h2v-4h4v-2h-4zm4.5-1.92V7.9l2.5-.5V18h2V5z"/></svg>

<svg width="24" height="24" viewBox="0 0 24 24" fill="none" xmlns="http://www.w3.org/2000/svg">
<g clip-path="url(#clip0_147_6612)">
<path d="M10 8H8V12H4V14H8V18H10V14H14V12H10V8ZM14.5 6.08V7.9L17 7.4V18H19V5L14.5 6.08Z" fill="#323232"/>
</g>
<defs>
<clipPath id="clip0_147_6612">
<rect width="24" height="24" fill="white"/>
</clipPath>
</defs>
</svg>
